X:1
T: Sir Charles Forbes of New and Edinglassie
C:William Marshall
R:Strathspey
Q: 128
K:Fm
M:4/4
L:1/16
|:C2|F3G A3B AGFE cBAG|F3G A3B c4 c2BA|Ge3 e2=dc BAGF E3G|BAGF AGF=E F4 F2C2|
F3G A3B AGFE cBAG|F3G A3B c4 c2BA|Ge3 e2=dc BAGF E3G|BAGF AGF=E F4 F2c2|
f3g a3f g3c cg3|f3g a3f agf=e f3g|f3g a3b g3e eg3|f3e c3=e f4 f2c2|
f3g a3f g3c cg3|fa3 gb3 af3 g3=d|edcB e3B G3E EG3|FGAB c3C F4 F2:|
